packages/core/src/svgs/tokens/mono/AMZ.svg

<svg width="24" height="24" viewBox="0 0 24 24" fill="none" xmlns="http://www.w3.org/2000/svg">
<path d="M12.0018 2C10.0238 1.99966 8.09014 2.5859 6.44539 3.68458C4.80062 4.78327 3.51863 6.34503 2.76154 8.17236C2.00446 9.99966 1.80627 12.0106 2.19207 13.9504C2.57787 15.8904 3.53031 17.6724 4.92893 19.0711C6.32756 20.4697 8.10955 21.4221 10.0496 21.8079C11.9894 22.1938 14.0003 21.9955 15.8277 21.2384C17.655 20.4813 19.2168 19.1993 20.3154 17.5547C21.4141 15.9099 22.0003 13.9762 22 11.9982C22 9.34655 20.9467 6.80345 19.0715 4.92842C17.1965 3.05339 14.6534 2 12.0018 2ZM17.4538 16.6037C16.2663 16.6037 15.943 16.6037 15.6961 16.588C14.5 16.5289 14.3522 15.9169 14.0253 15.0789L13.935 14.846C13.3091 15.0413 12.6573 15.141 12.0018 15.1415C11.3478 15.1418 10.6976 15.0421 10.0737 14.846L9.95033 15.1659C9.27052 16.8644 8.96453 16.6037 6.57232 16.6037L7.82059 13.6099C7.12422 13.0201 6.55821 12.2919 6.15855 11.4714H8.70897L9.99377 8.38734C10.4562 7.24686 10.6718 7.10779 11.9982 7.10779H13.4151L14.9799 10.7796C14.4792 11.4823 13.7475 11.987 12.9128 12.2051L11.9982 9.85122L10.9917 12.459C10.9343 12.459 10.8787 12.4694 10.8178 12.4694C10.4078 12.4688 10.0012 12.3934 9.61822 12.2469C10.4928 12.8311 11.551 13.0749 12.593 12.932C13.635 12.7891 14.5887 12.2696 15.2737 11.4714H17.8432C17.444 12.2921 16.8779 13.0204 16.1811 13.6099L17.4538 16.6037Z" fill="white"/>
</svg>

<svg xmlns="http://www.w3.org/2000/svg" width="24" height="24" fill="none" viewBox="0 0 24 24">
    <path fill="#fff" d="M12.002 2a10 10 0 1 0-.004 20 10 10 0 0 0 .004-20m5.452 14.604c-1.188 0-1.511 0-1.758-.016-1.196-.06-1.344-.671-1.67-1.51l-.091-.232a6.5 6.5 0 0 1-1.933.296 6.4 6.4 0 0 1-1.928-.296l-.124.32c-.68 1.698-.985 1.438-3.378 1.438l1.249-2.994a6.6 6.6 0 0 1-1.662-2.139h2.55l1.285-3.084c.462-1.14.678-1.28 2.004-1.28h1.417l1.565 3.673a3.68 3.68 0 0 1-2.067 1.425l-.915-2.354-1.006 2.608c-.058 0-.113.01-.174.01-.41 0-.817-.076-1.2-.222a4.303 4.303 0 0 0 5.656-.776h2.57a6.6 6.6 0 0 1-1.663 2.139z"/>
</svg>
